icon/lg/percy-icon.svg

<?xml version="1.0" encoding="UTF-8"?>
<svg viewBox="0 0 256 205" version="1.1" xmlns="http://www.w3.org/2000/svg" xmlns:xlink="http://www.w3.org/1999/xlink" preserveAspectRatio="xMidYMid" height="1em" width="1em">
  <g>
    <path d="M141.170227,0 C162.737211,9.60000346 181.801026,24.4870744 181.801026,24.4870744 C178.816576,12.6850606 176.655424,6.3678487 176.655424,6.3678487 C194.360902,16 221.257296,33.0166391 230.400083,41.600015 C235.704917,41.3521557 239.948887,40.0191632 242.670168,38.8800652 C247.308377,36.9382533 251.207259,41.708303 252.682843,46.5610408 C254.150236,51.3879225 255.916124,58.8385492 255.99702,66.9189361 C256.088156,75.9280914 254.088284,83.7120302 250.054234,90.0562245 C241.989719,102.738981 225.907793,111.10148 208.886859,119.951915 C191.125061,129.187375 176.3088,138.559026 164.727355,155.79756 C158.746169,164.701243 154.070072,174.628415 150.974006,184.933443 C147.670581,195.905607 145.060916,204.800074 137.637426,204.800074 C130.919471,204.800074 126.911534,196.145735 123.882029,191.258181 C118.054443,181.858882 110.806568,170.168381 99.0725477,169.179709 C88.650272,167.635516 80.0957729,171.493438 73.9138827,176.5904 C70.8587776,179.109441 68.3279606,181.975106 66.3879919,184.720451 C64.6502633,186.799171 63.0133987,188.93114 61.4221021,191.004741 C56.5596364,197.344327 52.3591869,202.820169 46.8098217,204.407882 C45.9026598,204.66849 45.0099874,204.800074 44.1557663,204.800074 C43.4459293,204.800074 42.628265,204.70433 41.7715351,204.43297 L41.7715351,204.43297 L41.7570455,204.455498 C24.2679384,199.331912 23.3654868,167.34982 23.3654868,167.34982 C14.9570102,169.352253 6.27430626,174.881855 6.27430626,174.881855 C14.1041715,148.058677 29.1120745,130.529327 29.1120745,130.529327 C17.5058945,129.61882 0.695427602,132.764355 0.0209535509,132.891819 L0,132.895792 C23.3654868,102.827045 39.1328397,91.8072651 39.1328397,91.8072651 C27.0064351,86.5103829 11.5857603,83.7486884 10.9613955,83.6381723 L10.9418023,83.6347182 C39.4033806,67.2000242 67.6470004,59.1580373 67.6470004,59.1580373 C65.2478443,56.8930663 60.4164191,54.3237355 55.4148062,52.0319476 L54.6442897,51.681633 C47.0603403,48.2599483 39.3523854,45.5417508 39.3523854,45.5417508 C59.0029013,39.888296 93.7815378,36.3563139 93.7815378,36.3563139 C91.7460756,34.6405806 88.9995481,32.8827505 86.091034,31.2373739 L85.4172128,30.8597381 C84.8537155,30.5468224 84.2857896,30.2385051 83.71734,29.9358855 L83.0351992,29.575547 C76.3299247,26.0604954 69.7692412,23.3999956 69.7692412,23.3999956 C99.0725477,22.4000081 118.694443,23.3999956 118.694443,23.3999956 C113.521193,16.2911291 100.188196,6.98844412 100.188196,6.98844412 C127.950894,9.60000346 147.740725,16.4895291 147.740725,16.4895291 C147.548484,14.9473725 146.542685,12.1738457 145.373565,9.33603839 L145.101165,8.68054992 C145.009596,8.46202756 144.917356,8.24365605 144.824742,8.02596663 L144.546073,7.37547582 C142.870867,3.4911831 141.170227,0 141.170227,0 Z M96.4951388,174.848575 C95.6703065,177.053248 94.7440982,179.439169 93.7574738,181.826626 C89.9594564,191.020101 85.4154548,200.523336 80.514077,201.297481 C80.2232609,201.343049 79.9268128,201.366601 79.6344607,201.366601 C76.0269074,201.366601 72.7926022,198.037575 69.7692412,191.200837 C75.0868751,183.703618 85.6381749,174.971967 96.4951388,174.848575 Z M180.802625,148.058677 C177.826368,159.217209 177.429056,170.424381 177.112128,179.427393 L177.111616,179.436609 C176.906304,185.257539 176.729152,190.283845 175.898175,193.942598 C174.785087,198.842952 172.346942,201.328201 168.648765,201.328201 L168.522813,201.327177 C164.954683,201.269321 161.163322,198.212679 157.008441,192.016965 C159.456825,177.99072 169.147453,160.074298 180.802625,148.058677 Z M60.1666777,114.434601 L38.4000138,147.200053 L58.9112532,128.445998 L60.1666777,114.434601 Z M122.514476,89.3317442 L73.2057864,112.880681 L114.302505,102.827045 L122.514476,89.3317442 Z M78.4066843,83.6347182 L39.3523854,111.645736 L71.1690497,97.6404832 L78.4066843,83.6347182 Z M166.74566,75.4222352 L122.943532,80.1392929 L154.964536,82.0142376 L166.74566,75.4222352 Z M118.694443,62.5674466 L74.892315,67.2834803 L107.080231,70.3498494 L118.694443,62.5674466 Z M180.391489,57.0767566 L147.740725,64.0000231 L173.145662,62.5674466 L180.391489,57.0767566 Z M106.200614,45.5417508 L140.156979,54.2300356 L154.964024,49.3139634 L106.200614,45.5417508 Z M141.170227,28.8000104 L168.648765,41.600015 L181.801026,38.8800652 L141.170227,28.8000104 Z" fill="#5C007B"/>
  </g>
</svg>

<svg width="256" height="205" xmlns="http://www.w3.org/2000/svg" preserveAspectRatio="xMidYMid"><path d="M141.17 0c21.567 9.6 40.631 24.487 40.631 24.487-2.984-11.802-5.146-18.12-5.146-18.12C194.361 16 221.257 33.018 230.4 41.6c5.305-.248 9.549-1.58 12.27-2.72 4.638-1.942 8.537 2.828 10.013 7.681 1.467 4.827 3.233 12.278 3.314 20.358.091 9.01-1.909 16.793-5.943 23.137-8.064 12.683-24.146 21.045-41.167 29.896-17.762 9.235-32.578 18.607-44.16 35.846-5.98 8.903-10.657 18.83-13.753 29.135-3.303 10.973-5.913 19.867-13.337 19.867-6.718 0-10.725-8.654-13.755-13.542-5.828-9.4-13.075-21.09-24.81-22.078-10.422-1.544-18.976 2.313-25.158 7.41a42.203 42.203 0 0 0-7.526 8.13c-1.738 2.08-3.375 4.211-4.966 6.285-4.862 6.34-9.063 11.815-14.612 13.403-.907.26-1.8.392-2.654.392a7.91 7.91 0 0 1-2.384-.367l-.015.022c-17.49-5.123-18.392-37.105-18.392-37.105-8.408 2.002-17.09 7.532-17.09 7.532 7.83-26.823 22.837-44.353 22.837-44.353-11.606-.91-28.417 2.235-29.091 2.363l-.021.004c23.365-30.069 39.133-41.089 39.133-41.089-12.127-5.297-27.547-8.058-28.172-8.169l-.02-.003C39.404 67.2 67.648 59.158 67.648 59.158c-2.4-2.265-7.23-4.834-12.232-7.126l-.77-.35c-7.585-3.422-15.293-6.14-15.293-6.14 19.65-5.654 54.43-9.186 54.43-9.186-2.036-1.715-4.782-3.473-7.691-5.119l-.674-.377c-.563-.313-1.131-.621-1.7-.924l-.682-.36C76.33 26.06 69.77 23.4 69.77 23.4c29.304-1 48.925 0 48.925 0-5.173-7.109-18.506-16.412-18.506-16.412 27.763 2.612 47.553 9.502 47.553 9.502-.193-1.543-1.198-4.316-2.367-7.154l-.273-.655c-.091-.219-.184-.437-.276-.655l-.279-.65C142.871 3.49 141.17 0 141.17 0ZM96.495 174.849a223.243 223.243 0 0 1-2.738 6.978c-3.798 9.193-8.342 18.696-13.243 19.47-.29.046-.587.07-.88.07-3.607 0-6.841-3.33-9.865-10.166 5.318-7.497 15.87-16.229 26.726-16.352Zm84.308-26.79c-2.977 11.158-3.374 22.365-3.69 31.368l-.001.01c-.206 5.82-.383 10.847-1.214 14.506-1.113 4.9-3.551 7.385-7.25 7.385h-.125c-3.568-.059-7.36-3.115-11.515-9.311 2.449-14.026 12.14-31.943 23.795-43.958ZM60.167 114.435 38.4 147.2l20.511-18.754 1.256-14.011Zm62.347-25.103L73.206 112.88l41.097-10.054 8.211-13.495Zm-44.107-5.697-39.055 28.01L71.17 97.64l7.238-14.005Zm88.339-8.213-43.802 4.717 32.02 1.875 11.782-6.592Zm-48.052-12.855-43.802 4.716 32.188 3.067 11.614-7.783Zm61.697-5.49L147.741 64l25.405-1.433 7.245-5.49Zm-74.19-11.535 33.956 8.688 14.807-4.916-48.763-3.772ZM141.17 28.8l27.478 12.8 13.152-2.72-40.63-10.08Z" fill="#5C007B"/></svg>
